public/img/icons/linkedin_white.svg

<svg width="26" height="26" viewBox="0 0 26 26" fill="none" xmlns="http://www.w3.org/2000/svg">
<path d="M21.471 14.8242V20.8C21.471 20.9468 21.3452 21.0726 21.1984 21.0726H18.1162C17.9694 21.0726 17.8436 20.9468 17.8436 20.8V15.2435C17.8436 13.7758 17.3194 12.7693 15.9984 12.7693C14.992 12.7693 14.4049 13.4403 14.1323 14.0903C14.0274 14.321 14.0065 14.6564 14.0065 14.971V20.8C14.0065 20.9468 13.8807 21.0726 13.7339 21.0726H10.6726C10.5258 21.0726 10.4 20.9468 10.4 20.8C10.4 19.3113 10.442 12.1193 10.4 10.4419C10.4 10.2951 10.5258 10.1693 10.6726 10.1693H13.7549C13.9016 10.1693 14.0274 10.2951 14.0274 10.4419V11.721C14.0274 11.7419 14.0065 11.7419 14.0065 11.7629H14.0274V11.721C14.5097 10.9871 15.3694 9.91772 17.2984 9.91772C19.6887 9.91772 21.471 11.4903 21.471 14.8242ZM5.03228 21.0935H8.11454C8.26132 21.0935 8.38712 20.9677 8.38712 20.821V10.4419C8.38712 10.2951 8.26132 10.1693 8.11454 10.1693H5.03228C4.88551 10.1693 4.7597 10.2951 4.7597 10.4419V20.821C4.78067 20.9677 4.88551 21.0935 5.03228 21.0935Z" fill="white"/>
<path d="M6.4793 8.80649C7.55625 8.80649 8.4293 7.93345 8.4293 6.85649C8.4293 5.77954 7.55625 4.90649 6.4793 4.90649C5.40234 4.90649 4.5293 5.77954 4.5293 6.85649C4.5293 7.93345 5.40234 8.80649 6.4793 8.80649Z" fill="white"/>
</svg>

<svg width="26" height="26" fill="none" xmlns="http://www.w3.org/2000/svg"><path d="M21.471 14.824V20.8a.278.278 0 0 1-.273.273h-3.082a.278.278 0 0 1-.272-.273v-5.557c0-1.467-.525-2.474-1.846-2.474-1.006 0-1.593.671-1.866 1.321-.105.231-.125.566-.125.881V20.8a.278.278 0 0 1-.273.273h-3.061a.278.278 0 0 1-.273-.273c0-1.489.042-8.68 0-10.358 0-.147.126-.273.273-.273h3.082c.147 0 .272.126.272.273v1.279c0 .02-.02.02-.02.042h.02v-.042c.483-.734 1.342-1.803 3.271-1.803 2.39 0 4.173 1.572 4.173 4.906Zm-16.439 6.27h3.083a.278.278 0 0 0 .272-.273v-10.38a.278.278 0 0 0-.272-.272H5.032a.278.278 0 0 0-.272.273V20.82c.02.147.126.272.272.272ZM6.48 8.806a1.95 1.95 0 1 0 0-3.9 1.95 1.95 0 0 0 0 3.9Z" fill="#fff"/></svg>
